X:829
M:C
L:1/8
K:D Minor
f>d f/e/d/^c/ d<DD:|
|:f/g/|a>d f>a d>af>a|g>ce>g c>g ef/g/|1 a>df>a d>af>a|g>c a/g/f/e/ f<dd:|2
a>fg>e f>de>c|A>c A/G/F/E/ F<DD||

